src/images/CoffeeMug_TheConcept-01.svg

<svg width="162" height="174" viewBox="0 0 162 174" fill="none" xmlns="http://www.w3.org/2000/svg">
<path d="M151.85 93.6979C140.99 85.7112 124.952 89.1357 116.032 101.355C107.112 113.575 108.677 129.935 119.548 137.934C130.419 145.932 146.44 142.496 155.366 130.282C164.292 118.068 162.709 101.69 151.85 93.6979ZM144.829 122.538C140.68 128.22 133.227 129.808 128.18 126.095C123.133 122.382 122.426 114.771 126.552 109.094C130.678 103.417 138.153 101.823 143.2 105.536C148.247 109.25 148.978 116.861 144.829 122.538Z" fill="#F3C74A"/>
<g style="mix-blend-mode:multiply" opacity="0.53">
<g style="mix-blend-mode:multiply" opacity="0.53">
<path d="M128.37 126.292C127.334 125.521 126.451 124.561 125.769 123.462L125.568 141.185C130.029 142.685 134.83 142.842 139.379 141.635L142.803 125.131C138.539 128.78 132.612 129.41 128.37 126.292Z" fill="#F3C74A"/>
</g>
<g style="mix-blend-mode:multiply" opacity="0.53">
<path d="M126.742 109.285C130.891 103.608 138.343 102.014 143.396 105.727C144.523 106.563 145.467 107.623 146.17 108.84L149.588 92.3352C142.435 88.4082 133.636 88.7836 126.115 92.8491L125.913 110.572C126.166 110.139 126.454 109.723 126.742 109.285Z" fill="#F3C74A"/>
</g>
</g>
<path d="M93.5077 161.605H37.0821C34.2217 161.605 31.9028 163.932 31.9028 166.803C31.9028 169.673 34.2217 172 37.0821 172H93.5077C96.3681 172 98.687 169.673 98.687 166.803C98.687 163.932 96.3681 161.605 93.5077 161.605Z" fill="#F3C74A"/>
<path d="M129.424 93.3167C129.481 92.0636 129.55 90.8162 129.59 89.5573C129.638 88.2687 129.426 86.9838 128.967 85.7792C128.509 84.5746 127.814 83.475 126.923 82.5459C126.032 81.6168 124.963 80.8772 123.781 80.3713C122.6 79.8654 121.328 79.6036 120.043 79.6013H10.553C9.2676 79.6028 7.99565 79.8641 6.81307 80.3696C5.63049 80.8752 4.56152 81.6146 3.66994 82.5438C2.77837 83.473 2.08246 84.5729 1.62376 85.7779C1.16505 86.9829 0.952943 88.2682 1.00009 89.5573C1.21494 95.825 1.62928 101.97 2.24312 107.991V92.9183C7.73893 92.9876 12.0953 94.1772 12.0953 108.978C12.0953 117.837 9.84518 129.618 7.22676 138.015C10.0687 147.367 15.8323 155.554 23.6664 161.367C31.5005 167.18 40.9897 170.31 50.7328 170.296H79.8405C88.6115 170.305 97.1977 167.767 104.564 162.989C111.93 158.211 117.762 151.397 121.355 143.368C118.035 135.422 114.576 119.951 114.576 108.978C114.576 94.1772 118.938 92.9876 124.428 92.9183V133.614C124.866 131.497 125.276 129.352 125.66 127.181V92.8894C126.928 92.868 128.193 93.0116 129.424 93.3167Z" fill="#F3C74A"/>
<path d="M39.4995 108.949C39.4995 123.491 45.5708 145.938 49.3517 148.288V92.8894C43.8616 92.976 39.4995 94.131 39.4995 108.949Z" fill="#F8EEC8"/>
<path d="M60.4352 108.949C60.4352 94.1483 56.0788 92.9587 50.583 92.8894V148.288C54.3639 145.938 60.4352 123.491 60.4352 108.949Z" fill="#F8EEC8"/>
<path d="M15.0415 108.949C15.0415 123.491 21.1128 145.938 24.8937 148.288V92.8894C19.4151 92.976 15.0415 94.131 15.0415 108.949Z" fill="#F8EEC8"/>
<path d="M35.9777 108.949C35.9777 94.1483 31.6213 92.9587 26.1255 92.8894V148.288C29.9064 145.938 35.9777 123.491 35.9777 108.949Z" fill="#F8EEC8"/>
<path d="M65.396 108.949C65.396 123.491 71.4673 145.938 75.2482 148.288V92.8894C69.7581 92.976 65.396 94.131 65.396 108.949Z" fill="#F8EEC8"/>
<path d="M86.3317 108.949C86.3317 94.1483 81.9753 92.9587 76.4795 92.8894V148.288C80.2604 145.938 86.3317 123.491 86.3317 108.949Z" fill="#F8EEC8"/>
<path d="M90.1416 108.949C90.1416 123.491 96.2129 145.938 99.9938 148.288V92.8894C94.5037 92.976 90.1416 94.131 90.1416 108.949Z" fill="#F8EEC8"/>
<path d="M111.077 108.949C111.077 94.1483 106.721 92.9587 101.225 92.8894V148.288C105.006 145.938 111.077 123.491 111.077 108.949Z" fill="#F8EEC8"/>
<path d="M2.24316 92.8894V107.991C3.11844 116.823 4.46314 125.602 6.2715 134.29C6.53622 135.554 6.84698 136.796 7.22104 138.015C9.83946 129.618 12.0896 117.837 12.0896 108.978C12.0953 94.131 7.73897 92.976 2.24316 92.8894Z" fill="#F8EEC8"/>
<path d="M114.599 108.949C114.599 119.922 118.052 135.393 121.378 143.339C122.676 140.426 123.662 137.383 124.319 134.261C124.365 134.036 124.405 133.805 124.451 133.585V92.8894C118.973 92.976 114.599 94.131 114.599 108.949Z" fill="#F8EEC8"/>
<path d="M125.683 92.8894V127.152C127.659 115.967 128.909 104.665 129.424 93.3168C128.2 93.0136 126.943 92.87 125.683 92.8894Z" fill="#F8EEC8"/>
<path d="M68.0892 9.55737C69.498 6.76905 71.7949 4.53316 74.6151 3.20496C74.9465 3.05373 75.2188 2.79688 75.3897 2.47432C75.5606 2.15177 75.6205 1.78159 75.5601 1.42134C75.4998 1.06108 75.3225 0.730942 75.0558 0.482237C74.7892 0.233532 74.4481 0.0802002 74.0857 0.0460789C71.5838 -0.17586 69.0775 0.420931 66.9416 1.7472C64.8058 3.07346 63.1552 5.05793 62.2367 7.40382C61.3182 9.7497 61.1812 12.3309 61.8461 14.7615C62.511 17.192 63.9421 19.3413 65.9254 20.8878C66.2459 21.1372 66.6403 21.272 67.0459 21.2706C67.4516 21.2693 67.8451 21.1319 68.1639 20.8803C68.4828 20.6287 68.7087 20.2773 68.8056 19.8821C68.9026 19.4869 68.8652 19.0705 68.6992 18.6991C67.4784 15.8071 67.2635 12.5869 68.0892 9.55737Z" fill="#F8EEC8"/>
<path d="M66.6041 16.4643C67.1955 16.8944 67.7481 17.3755 68.2558 17.9023C70.0641 19.7876 71.1912 22.2264 71.4572 24.8295C71.7232 27.4326 71.1127 30.0502 69.7232 32.2645C69.2425 33.0185 68.6788 33.7159 68.0428 34.3435C67.8527 34.5333 67.7296 34.7802 67.6921 35.0466C67.6545 35.313 67.7047 35.5845 67.8349 35.8197C67.9651 36.0549 68.1683 36.2411 68.4136 36.3499C68.6588 36.4587 68.9328 36.4841 69.1938 36.4225C71.8861 35.7678 74.2548 34.1654 75.8693 31.9065C77.0544 30.2543 77.7885 28.32 77.9988 26.2954C78.209 24.2707 77.8882 22.2261 77.0681 20.3642C76.2481 18.5023 74.9572 16.888 73.3236 15.6812C71.69 14.4744 69.7703 13.7171 67.7551 13.4845C67.3934 13.4429 67.0282 13.5228 66.7166 13.7117C66.4051 13.9006 66.1647 14.1879 66.0331 14.5285C65.9016 14.8691 65.8862 15.2439 65.9896 15.5942C66.0929 15.9444 66.309 16.2505 66.6041 16.4643Z" fill="#F8EEC8"/>
<path d="M62.5759 39.7313C63.9937 36.9567 66.2889 34.7327 69.1018 33.4078C69.4439 33.2646 69.728 33.0101 69.9085 32.6853C70.089 32.3604 70.1554 31.984 70.0969 31.6168C70.0385 31.2495 69.8586 30.9126 69.5863 30.6603C69.3139 30.408 68.9649 30.255 68.5954 30.2258C66.4498 30.0297 64.2924 30.4419 62.3687 31.4155C60.6148 32.299 59.1122 33.6135 58.0009 35.2366C56.8895 36.8597 56.2054 38.7386 56.0124 40.6984C55.8194 42.6581 56.1238 44.6351 56.8971 46.4451C57.6703 48.2551 58.8875 49.8393 60.4351 51.0502C60.7545 51.3007 61.1484 51.4366 61.5539 51.4361C61.9593 51.4356 62.3528 51.2987 62.6716 51.0473C62.9904 50.7959 63.216 50.4445 63.3123 50.0493C63.4087 49.6541 63.3703 49.238 63.2032 48.8673C61.985 45.9773 61.7642 42.7617 62.5759 39.7313Z" fill="#F8EEC8"/>
<path d="M63.0308 47.9837C63.6325 48.4096 64.1931 48.891 64.7055 49.4216C66.5161 51.3045 67.6448 53.7425 67.9109 56.3454C68.1769 58.9483 67.565 61.5656 66.173 63.7781C65.6924 64.5324 65.1308 65.2315 64.4983 65.8628C64.3082 66.0526 64.1851 66.2995 64.1475 66.5659C64.11 66.8324 64.1602 67.1038 64.2904 67.339C64.4206 67.5743 64.6238 67.7604 64.8691 67.8692C65.1143 67.978 65.3883 68.0035 65.6493 67.9418C68.3011 67.2878 70.639 65.7183 72.2535 63.5083C73.868 61.2983 74.6561 58.5887 74.4797 55.8542C74.3033 53.1196 73.1738 50.5345 71.2889 48.5518C69.404 46.5691 66.884 45.3151 64.1703 45.0096C63.8093 44.9684 63.4449 45.0486 63.1343 45.2376C62.8236 45.4267 62.5843 45.714 62.454 46.0542C62.3236 46.3945 62.3095 46.7687 62.4139 47.1179C62.5183 47.4671 62.7353 47.7716 63.0308 47.9837Z" fill="#F8EEC8"/>
<g style="mix-blend-mode:multiply" opacity="0.53">
<path d="M66.1039 157.655C34.1361 150.927 9.68408 131.454 2.72656 109.781C3.07185 114.545 4.33214 128.792 7.60661 138.176C10.4475 147.529 16.2107 155.718 24.0449 161.532C31.879 167.346 41.3689 170.477 51.1127 170.464H80.2433C92.3011 170.469 103.868 165.673 112.407 157.129C98.6816 160.716 82.6316 161.16 66.1039 157.655Z" fill="#F3C74A"/>
</g>
</svg>

<svg width="162" height="174" viewBox="0 0 162 174" fill="none" xmlns="http://www.w3.org/2000/svg"><path d="M151.85 93.698c-10.86-7.987-26.898-4.562-35.818 7.657-8.92 12.22-7.355 28.58 3.516 36.579 10.871 7.998 26.892 4.562 35.818-7.652 8.926-12.214 7.343-28.592-3.516-36.584zm-7.021 28.84c-4.149 5.682-11.602 7.27-16.649 3.557-5.047-3.713-5.754-11.324-1.628-17.001 4.126-5.677 11.601-7.271 16.648-3.558 5.047 3.714 5.778 11.325 1.629 17.002z" fill="#F3C74A"/><g style="mix-blend-mode:multiply" opacity=".53"><path d="M128.37 126.292a10.295 10.295 0 0 1-2.601-2.83l-.201 17.723a24.008 24.008 0 0 0 13.811.45l3.424-16.504c-4.264 3.649-10.191 4.279-14.433 1.161zM126.742 109.285c4.149-5.677 11.601-7.271 16.654-3.558a10.274 10.274 0 0 1 2.774 3.113l3.418-16.505c-7.153-3.927-15.952-3.551-23.473.514l-.202 17.723c.253-.433.541-.849.829-1.287z" fill="#F3C74A" opacity=".53"/></g><path d="M93.508 161.605H37.082c-2.86 0-5.18 2.327-5.18 5.198 0 2.87 2.32 5.197 5.18 5.197h56.426c2.86 0 5.179-2.327 5.179-5.197 0-2.871-2.319-5.198-5.18-5.198z" fill="#F3C74A"/><path d="M129.424 93.317c.057-1.253.126-2.5.166-3.76a9.607 9.607 0 0 0-.623-3.778 9.573 9.573 0 0 0-8.924-6.178H10.553a9.543 9.543 0 0 0-6.883 2.943A9.608 9.608 0 0 0 1 89.557c.215 6.268.63 12.413 1.243 18.434V92.918c5.496.07 9.852 1.26 9.852 16.06 0 8.859-2.25 20.64-4.868 29.037a45.574 45.574 0 0 0 16.44 23.352 45.309 45.309 0 0 0 27.066 8.929H79.84a45.344 45.344 0 0 0 24.723-7.307 45.57 45.57 0 0 0 16.791-19.621c-3.32-7.946-6.779-23.417-6.779-34.39 0-14.8 4.362-15.99 9.852-16.06v40.696c.438-2.117.848-4.262 1.232-6.433V92.889a14.62 14.62 0 0 1 3.764.428z" fill="#F3C74A"/><path d="M39.5 108.949c0 14.542 6.07 36.989 9.852 39.339V92.889c-5.49.087-9.852 1.242-9.852 16.06zM60.435 108.949c0-14.8-4.356-15.99-9.852-16.06v55.399c3.78-2.35 9.852-24.797 9.852-39.339zM15.041 108.949c0 14.542 6.072 36.989 9.853 39.339V92.889c-5.479.087-9.852 1.242-9.852 16.06zM35.978 108.949c0-14.8-4.357-15.99-9.853-16.06v55.399c3.781-2.35 9.853-24.797 9.853-39.339zM65.396 108.949c0 14.542 6.071 36.989 9.852 39.339V92.889c-5.49.087-9.852 1.242-9.852 16.06zM86.332 108.949c0-14.8-4.357-15.99-9.852-16.06v55.399c3.78-2.35 9.852-24.797 9.852-39.339zM90.142 108.949c0 14.542 6.07 36.989 9.852 39.339V92.889c-5.49.087-9.852 1.242-9.852 16.06zM111.077 108.949c0-14.8-4.356-15.99-9.852-16.06v55.399c3.781-2.35 9.852-24.797 9.852-39.339zM2.243 92.89v15.101a250.096 250.096 0 0 0 4.029 26.299c.264 1.264.575 2.506.949 3.725 2.618-8.397 4.869-20.178 4.869-29.037.005-14.847-4.351-16.002-9.847-16.089zM114.599 108.949c0 10.973 3.453 26.444 6.779 34.39a45.147 45.147 0 0 0 2.941-9.078c.046-.225.086-.456.132-.676V92.889c-5.478.087-9.852 1.242-9.852 16.06zM125.683 92.89v34.262a263.03 263.03 0 0 0 3.741-33.835 14.62 14.62 0 0 0-3.741-.428zM68.09 9.557a13.995 13.995 0 0 1 6.525-6.352 1.654 1.654 0 0 0 .945-1.784A1.658 1.658 0 0 0 74.086.046a11.599 11.599 0 0 0-7.144 1.701 11.661 11.661 0 0 0-4.705 5.657 11.71 11.71 0 0 0-.39 7.357 11.674 11.674 0 0 0 4.078 6.127 1.814 1.814 0 0 0 2.88-1.006A1.83 1.83 0 0 0 68.7 18.7a14.026 14.026 0 0 1-.61-9.142z" fill="#F8EEC8"/><path d="M66.604 16.464c.591.43 1.144.912 1.652 1.438a11.744 11.744 0 0 1 1.467 14.362 11.933 11.933 0 0 1-1.68 2.08 1.237 1.237 0 0 0 1.15 2.078 11.566 11.566 0 0 0 6.676-4.515 11.701 11.701 0 0 0 1.2-11.543 11.669 11.669 0 0 0-3.745-4.683 11.613 11.613 0 0 0-5.569-2.196 1.641 1.641 0 0 0-1.722 1.043 1.657 1.657 0 0 0 .571 1.936z" fill="#F8EEC8"/><path d="M62.576 39.731a14.058 14.058 0 0 1 6.526-6.323 1.654 1.654 0 0 0 .995-1.791 1.66 1.66 0 0 0-1.502-1.391 11.475 11.475 0 0 0-6.226 1.19A11.642 11.642 0 0 0 58 35.236a11.697 11.697 0 0 0-1.104 11.21 11.665 11.665 0 0 0 3.538 4.604 1.81 1.81 0 0 0 2.877-1 1.824 1.824 0 0 0-.109-1.183 14.12 14.12 0 0 1-.627-9.136z" fill="#F8EEC8"/><path d="M63.03 47.984c.602.426 1.163.907 1.675 1.438a11.722 11.722 0 0 1 1.468 14.357 12.232 12.232 0 0 1-1.675 2.084 1.238 1.238 0 0 0 .371 2.006c.245.109.52.135.78.073a11.629 11.629 0 0 0 6.605-4.434 11.7 11.7 0 0 0-.965-14.956 11.615 11.615 0 0 0-7.119-3.542 1.636 1.636 0 0 0-1.716 1.044 1.651 1.651 0 0 0 .577 1.93z" fill="#F8EEC8"/><path d="M66.104 157.655c-31.968-6.728-56.42-26.201-63.377-47.874.345 4.764 1.605 19.011 4.88 28.395a45.575 45.575 0 0 0 16.438 23.356 45.314 45.314 0 0 0 27.068 8.932h29.13a45.445 45.445 0 0 0 32.164-13.335c-13.725 3.587-29.775 4.031-46.303.526z" fill="#F3C74A" opacity=".53"/></svg>
